assets/dist/images/landing-pages/reporting/report-series.svg

<?xml version="1.0" encoding="UTF-8"?>
<svg width="58px" height="58px" viewBox="0 0 58 58" version="1.1" xmlns="http://www.w3.org/2000/svg" xmlns:xlink="http://www.w3.org/1999/xlink">
    <!-- Generator: Sketch 48.2 (47327) - http://www.bohemiancoding.com/sketch -->
    <title>report-series</title>
    <desc>Created with Sketch.</desc>
    <defs></defs>
    <g id="Reports" stroke="none" stroke-width="1" fill="none" fill-rule="evenodd">
        <g id="report-series" fill="#01B2D0">
            <path d="M29,38 L24,38 C21.790861,38 20,36.209139 20,34 L20,31 L15,31 C12.790861,31 11,29.209139 11,27 L11,17 C11,14.790861 12.790861,13 15,13 L25,13 C27.209139,13 29,14.790861 29,17 L29,20 L34,20 C36.209139,20 38,21.790861 38,24 L38,27 L43,27 C45.209139,27 47,28.790861 47,31 L47,41 C47,43.209139 45.209139,45 43,45 L33,45 C30.790861,45 29,43.209139 29,41 L29,38 Z M36,27 L36,24 C36,22.8954305 35.1045695,22 34,22 L24,22 C22.8954305,22 22,22.8954305 22,24 L22,34 C22,35.1045695 22.8954305,36 24,36 L29,36 L29,31 C29,28.790861 30.790861,27 33,27 L36,27 Z M27,20 L27,17 C27,15.8954305 26.1045695,15 25,15 L15,15 C13.8954305,15 13,15.8954305 13,17 L13,27 C13,28.1045695 13.8954305,29 15,29 L20,29 L20,24 C20,21.790861 21.790861,20 24,20 L27,20 Z M33,29 C31.8954305,29 31,29.8954305 31,31 L31,41 C31,42.1045695 31.8954305,43 33,43 L43,43 C44.1045695,43 45,42.1045695 45,41 L45,31 C45,29.8954305 44.1045695,29 43,29 L33,29 Z" id="Combined-Shape" fill-rule="nonzero"></path>
            <path d="M25.9471627,24.2765027 L27.9251746,28.2325265 C28.0486692,28.4795158 27.9485571,28.7798523 27.7015678,28.9033469 C27.6321401,28.9380608 27.5555836,28.9561333 27.477961,28.9561333 L23.5219372,28.9561333 C23.2457949,28.9561333 23.0219372,28.7322757 23.0219372,28.4561333 C23.0219372,28.3785108 23.0400098,28.3019542 23.0747236,28.2325265 L25.0527355,24.2765027 C25.1762302,24.0295135 25.4765667,23.9294013 25.7235559,24.0528959 C25.8203196,24.1012778 25.8987809,24.179739 25.9471627,24.2765027 Z" id="Rectangle-9" opacity="0.402400362" transform="translate(25.500004, 26.478067) scale(1, -1) translate(-25.500004, -26.478067) "></path>
            <path d="M16.9471627,17.3203694 L18.9251746,21.2763932 C19.0486692,21.5233825 18.9485571,21.823719 18.7015678,21.9472136 C18.6321401,21.9819275 18.5555836,22 18.477961,22 L14.5219372,22 C14.2457949,22 14.0219372,21.7761424 14.0219372,21.5 C14.0219372,21.4223775 14.0400098,21.3458209 14.0747236,21.2763932 L16.0527355,17.3203694 C16.1762302,17.0733802 16.4765667,16.973268 16.7235559,17.0967626 C16.8203196,17.1451445 16.8987809,17.2236057 16.9471627,17.3203694 Z" id="Rectangle-9" opacity="0.402400362"></path>
            <path d="M34.9471627,31.3203694 L36.9251746,35.2763932 C37.0486692,35.5233825 36.9485571,35.823719 36.7015678,35.9472136 C36.6321401,35.9819275 36.5555836,36 36.477961,36 L32.5219372,36 C32.2457949,36 32.0219372,35.7761424 32.0219372,35.5 C32.0219372,35.4223775 32.0400098,35.3458209 32.0747236,35.2763932 L34.0527355,31.3203694 C34.1762302,31.0733802 34.4765667,30.973268 34.7235559,31.0967626 C34.8203196,31.1451445 34.8987809,31.2236057 34.9471627,31.3203694 Z" id="Rectangle-9" opacity="0.402400362"></path>
        </g>
    </g>
</svg>

<svg width="58" height="58" viewBox="0 0 58 58" xmlns="http://www.w3.org/2000/svg"><g fill="#01B2D0" fill-rule="evenodd"><path d="M29 38h-5a4 4 0 01-4-4v-3h-5a4 4 0 01-4-4V17a4 4 0 014-4h10a4 4 0 014 4v3h5a4 4 0 014 4v3h5a4 4 0 014 4v10a4 4 0 01-4 4H33a4 4 0 01-4-4v-3zm7-11v-3a2 2 0 00-2-2H24a2 2 0 00-2 2v10a2 2 0 002 2h5v-5a4 4 0 014-4h3zm-9-7v-3a2 2 0 00-2-2H15a2 2 0 00-2 2v10a2 2 0 002 2h5v-5a4 4 0 014-4h3zm6 9a2 2 0 00-2 2v10a2 2 0 002 2h10a2 2 0 002-2V31a2 2 0 00-2-2H33z" fill-rule="nonzero"/><path d="M25.947 28.68l1.978-3.956a.5.5 0 00-.447-.724h-3.956a.5.5 0 00-.447.724l1.978 3.956a.5.5 0 00.894 0zm-9-11.36l1.978 3.956a.5.5 0 01-.447.724h-3.956a.5.5 0 01-.447-.724l1.978-3.956a.5.5 0 01.894 0zm18 14l1.978 3.956a.5.5 0 01-.447.724h-3.956a.5.5 0 01-.447-.724l1.978-3.956a.5.5 0 01.894 0z" opacity=".402"/></g></svg>
